img/hse2.svg

<svg width="117" height="106" fill="none" xmlns="http://www.w3.org/2000/svg"><mask id="a" fill="#fff"><path d="M98.8846 53.8827c0 22.1006-17.916 40.0166-40.0165 40.0166s-40.0165-17.916-40.0165-40.0166c0-22.1005 17.916-40.0165 40.0165-40.0165s40.0165 17.916 40.0165 40.0165z"/></mask><path d="M98.8846 53.8827c0 22.1006-17.916 40.0166-40.0165 40.0166s-40.0165-17.916-40.0165-40.0166c0-22.1005 17.916-40.0165 40.0165-40.0165s40.0165 17.916 40.0165 40.0165z" fill="#fff" stroke="#000" stroke-width="6" mask="url(#a)"/><ellipse cx="67.3516" cy="67.9912" rx="12" ry="12.5" fill="#F4003B" stroke="#000" stroke-width="3"/><path d="M22.2915 42.0525C6.47636 48.3663 5.74581 58.4772 7.4242 64.7416c3.3591 12.5364 28.7864 16.6157 56.7933 9.1112 28.007-7.5044 47.9885-23.7508 44.6285-36.2872-1.845-7.8887-11.3544-13.2237-23.2932-12.4866" stroke="#000" stroke-width="3"/><circle cx="69.8516" cy="32.8662" r="5.5" fill="#F4003B" stroke="#000" stroke-width="3"/><path d="M46.8432 47.6232c0 4.4969-3.6455 8.1423-8.1423 8.1423-4.4969 0-8.1423-3.6454-8.1423-8.1423 0-4.4968 3.6454-8.1422 8.1423-8.1422 4.4968 0 8.1423 3.6454 8.1423 8.1422z" fill="#F4003B" stroke="#000" stroke-width="3"/></svg>

<svg width="117" height="106" viewBox="0 0 117 106" fill="none" xmlns="http://www.w3.org/2000/svg">
<mask id="path-1-inside-1" fill="white">
<path d="M98.8846 53.8827C98.8846 75.9833 80.9686 93.8993 58.8681 93.8993C36.7676 93.8993 18.8516 75.9833 18.8516 53.8827C18.8516 31.7822 36.7676 13.8662 58.8681 13.8662C80.9686 13.8662 98.8846 31.7822 98.8846 53.8827Z"/>
</mask>
<path d="M98.8846 53.8827C98.8846 75.9833 80.9686 93.8993 58.8681 93.8993C36.7676 93.8993 18.8516 75.9833 18.8516 53.8827C18.8516 31.7822 36.7676 13.8662 58.8681 13.8662C80.9686 13.8662 98.8846 31.7822 98.8846 53.8827Z" fill="white" stroke="black" stroke-width="6" mask="url(#path-1-inside-1)"/>
<ellipse cx="67.3516" cy="67.9912" rx="12" ry="12.5" fill="#F4003B" stroke="black" stroke-width="3"/>
<path d="M22.2915 42.0525C6.47636 48.3663 5.74581 58.4772 7.4242 64.7416C10.7833 77.278 36.2106 81.3573 64.2175 73.8528C92.2245 66.3484 112.206 50.102 108.846 37.5656C107.001 29.6769 97.4916 24.3419 85.5528 25.079" stroke="black" stroke-width="3"/>
<circle cx="69.8516" cy="32.8662" r="5.5" fill="#F4003B" stroke="black" stroke-width="3"/>
<path d="M46.8432 47.6232C46.8432 52.1201 43.1977 55.7655 38.7009 55.7655C34.204 55.7655 30.5586 52.1201 30.5586 47.6232C30.5586 43.1264 34.204 39.481 38.7009 39.481C43.1977 39.481 46.8432 43.1264 46.8432 47.6232Z" fill="#F4003B" stroke="black" stroke-width="3"/>
</svg>
